libs/icons/src/svg/margin-right.svg

<svg width="16" height="16" viewBox="0 0 16 16" fill="none" xmlns="http://www.w3.org/2000/svg">
<path fill-rule="evenodd" clip-rule="evenodd" d="M0 2.00001C0 1.63182 0.298477 1.33334 0.666667 1.33334H15.3333C15.7015 1.33334 16 1.63182 16 2.00001C16 2.3682 15.7015 2.66668 15.3333 2.66668H0.666667C0.298477 2.66668 0 2.3682 0 2.00001ZM0 6.00001C0 5.63182 0.298477 5.33334 0.666667 5.33334H6.66667C7.03486 5.33334 7.33333 5.63182 7.33333 6.00001C7.33333 6.3682 7.03486 6.66668 6.66667 6.66668H0.666667C0.298477 6.66668 0 6.3682 0 6.00001ZM0.666667 9.33334C0.298477 9.33334 0 9.63182 0 10C0 10.3682 0.298477 10.6667 0.666667 10.6667H6.66667C7.03486 10.6667 7.33333 10.3682 7.33333 10C7.33333 9.63182 7.03486 9.33334 6.66667 9.33334H0.666667ZM0 14C0 13.6318 0.298477 13.3333 0.666667 13.3333H15.3333C15.7015 13.3333 16 13.6318 16 14C16 14.3682 15.7015 14.6667 15.3333 14.6667H0.666667C0.298477 14.6667 0 14.3682 0 14ZM11.3333 6.6667V7.33334H15.3333C15.7015 7.33334 16 7.63182 16 8.00001C16 8.3682 15.7015 8.66668 15.3333 8.66668H11.3333V9.33336C11.3333 9.603 11.1709 9.8461 10.9218 9.94928C10.6727 10.0525 10.3859 9.99543 10.1953 9.80477L8.86193 8.47143C8.60158 8.21108 8.60158 7.78897 8.86193 7.52863L10.1953 6.19529C10.3859 6.00463 10.6727 5.94759 10.9218 6.05078C11.1709 6.15396 11.3333 6.39705 11.3333 6.6667Z" fill="#202327"/>
</svg>

<svg xmlns="http://www.w3.org/2000/svg" viewBox="0 0 16 16" class="sageicon"><path fill-rule="evenodd" d="M0 2c0-.368.298-.667.667-.667h14.666a.667.667 0 1 1 0 1.334H.667A.667.667 0 0 1 0 2Zm0 4c0-.368.298-.667.667-.667h6a.667.667 0 0 1 0 1.334h-6A.667.667 0 0 1 0 6Zm.667 3.333a.667.667 0 0 0 0 1.334h6a.667.667 0 0 0 0-1.334h-6ZM0 14c0-.368.298-.667.667-.667h14.666a.667.667 0 0 1 0 1.334H.667A.667.667 0 0 1 0 14Zm11.333-7.333v.666h4a.667.667 0 1 1 0 1.334h-4v.666a.667.667 0 0 1-1.138.472L8.862 8.47a.667.667 0 0 1 0-.942l1.333-1.334a.667.667 0 0 1 1.138.472Z"/></svg>
